Newaita-dark/apps/22/libreoffice-base.svg

<svg height="22" viewBox="0 0 22 22" width="22" xmlns="http://www.w3.org/2000/svg" xmlns:xlink="http://www.w3.org/1999/xlink"><linearGradient id="a" gradientTransform="matrix(.0511582 0 0 .0429729 -1.808356 9.239165)" gradientUnits="userSpaceOnUse" x1="254" x2="254" y1="233.5" y2="254.666672"><stop offset="0" stop-opacity=".27451"/><stop offset="1" stop-opacity="0"/></linearGradient><linearGradient id="b"><stop offset="0" stop-opacity=".313726"/><stop offset=".222222" stop-opacity=".27451"/><stop offset="1" stop-opacity="0"/></linearGradient><radialGradient id="c" cx="450.908936" cy="189.579361" gradientTransform="matrix(.00000012 -.0537161 -.0966889 -.00000007 34.702833 43.721791)" gradientUnits="userSpaceOnUse" r="21.166656" xlink:href="#b"/><radialGradient id="d" cx="450.908936" cy="189.579361" gradientTransform="matrix(-.00000012 .0537161 .0966889 .00000007 -12.872623 -5.175142)" gradientUnits="userSpaceOnUse" r="21.166656" xlink:href="#b"/><radialGradient id="e" cx="450.908936" cy="189.579361" gradientTransform="matrix(-.00000012 -.0537161 .0966889 -.00000007 -12.872623 43.721791)" gradientUnits="userSpaceOnUse" r="21.166656" xlink:href="#b"/><radialGradient id="f" cx="450.908936" cy="189.579361" gradientTransform="matrix(.00000012 .0537161 -.0966889 .00000007 34.702832 -5.175142)" gradientUnits="userSpaceOnUse" r="21.166656" xlink:href="#b"/><linearGradient id="g"><stop offset="0" stop-color="#ec407a"/><stop offset="1" stop-color="#f06292"/></linearGradient><linearGradient id="h" gradientUnits="userSpaceOnUse" x1="10.915104" x2="10.915104" xlink:href="#g" y1="19.27332401286" y2="1.99107548985"/><linearGradient id="i" gradientUnits="userSpaceOnUse" x1="10.915104" x2="10.915104" y1="18.36373201286" y2="2.90066748985"><stop offset="0" stop-color="#e0e0e0"/><stop offset="1" stop-color="#eee"/></linearGradient><linearGradient id="j" gradientUnits="userSpaceOnUse" x1="10.915104" x2="10.915104" xlink:href="#g" y1="13.58838401286" y2="7.2212393193"/><path d="m5.230469 19.273438h11.371093v.910156h-11.371093zm0 0" fill="url(#a)"/><path d="m16.601562 19.273438h1.816407v-.910157h-1.816407zm0 0" fill="url(#c)"/><path d="m5.230469 19.273438h-1.820313v.910156h1.820313zm0 0" fill="url(#d)"/><path d="m5.230469 19.273438h-1.820313v-.910157h1.820313zm0 0" fill="url(#e)"/><path d="m16.601562 19.273438h1.816407v.910156h-1.816407zm0 0" fill="url(#f)"/><path d="m4.546875 1.992188c-.503906 0-.910156.40625-.910156.910156v15.460937c0 .503907.40625.910157.910156.910157h12.734375c.503906 0 .910156-.40625.910156-.910157v-10.347656l-6.023437-6.023437zm9.550781 0 4.09375 4.09375v-3.183594c0-.503906-.40625-.910156-.910156-.910156zm0 0" fill="url(#h)"/><path d="m5.003906 2.902344c-.253906 0-.457031.199218-.457031.453125v14.554687c0 .25.203125.453125.457031.453125h11.824219c.25 0 .453125-.203125.453125-.453125v-9.550781l-5.457031-5.457031zm0 0" fill="url(#i)"/><path d="m4.546875 1.992188c-.503906 0-.910156.40625-.910156.910156v.226562c0-.503906.40625-.910156.910156-.910156h7.621094l6.023437 6.023438v-.226563l-6.023437-6.023437zm9.550781 0 .226563.226562h2.957031c.503906 0 .910156.40625.910156.910156v-.226562c0-.503906-.40625-.910156-.910156-.910156zm0 0" fill="#fff" fill-opacity=".392157"/><path d="m5.003906 2.902344c-.253906 0-.457031.199218-.457031.453125v.339843c0-.25.203125-.453124.457031-.453124h6.820313l5.457031 5.457031v-.339844l-5.457031-5.457031zm0 0" fill-opacity=".235294"/><path d="m4.546875 17.925781v.214844c0 .25.203125.453125.457031.453125h11.824219c.25 0 .453125-.203125.453125-.453125v-.214844c0 .25-.203125.453125-.453125.453125h-11.824219c-.253906 0-.457031-.203125-.457031-.453125zm0 0" fill="#fff" fill-opacity=".392157"/><path d="m440.101159 255.265544c-22.33144 0-40.196593 17.521592-40.196593 39.853032v1280.106886c0 21.98788 17.865153 39.853032 40.196593 39.853032h1039.95801c21.98788 0 39.853032-17.865152 39.853032-39.853032v-840.005726l-479.954192-479.954192zm0 0" fill="none" stroke="#212121" stroke-linecap="round" stroke-linejoin="round" stroke-width="11.338583" transform="scale(.0113699)"/><path d="m14.097656 1.992188 4.09375 4.09375v-.222657l-3.871094-3.871093zm-10.460937 16.148437v.222656c0 .503907.40625.910157.910156.910157h12.734375c.503906 0 .910156-.40625.910156-.910157v-.222656c0 .503906-.40625.910156-.910156.910156h-12.734375c-.503906 0-.910156-.40625-.910156-.910156zm0 0" fill-opacity=".235294"/><path d="m399.904566 175.215918c-44.31932 0-80.049625 35.730305-80.049625 80.049626v1359.81295c0 44.31932 35.730305 80.049625 80.049625 80.049625h1120.007635c44.319321 0 80.049626-35.730305 80.049626-80.049625v-910.092093l-529.770483-529.770483zm840.005726 0 360.051535 360.051534v-280.001908c0-44.319321-35.730305-80.049626-80.049626-80.049626zm0 0" fill="none" stroke="#212121" stroke-linecap="round" stroke-linejoin="round" stroke-width="11.338583" transform="scale(.0113699)"/><path d="m10.914062 7.222656c-1.636718 0-2.957031.605469-2.957031 1.363282 0 .753906 1.320313 1.363281 2.957031 1.363281 1.640626 0 2.957032-.609375 2.957032-1.363281 0-.757813-1.316406-1.363282-2.957032-1.363282zm-2.5625 2.726563c-.25.203125-.394531.433593-.394531.683593 0 .753907 1.320313 1.363282 2.957031 1.363282 1.640626 0 2.957032-.609375 2.957032-1.363282 0-.25-.144532-.480468-.394532-.683593-.507812.410156-1.464843.683593-2.5625.683593-1.097656 0-2.050781-.273437-2.5625-.683593zm0 2.046875c-.25.199218-.394531.433594-.394531.683594 0 .753906 1.320313 1.363281 2.957031 1.363281 1.640626 0 2.957032-.609375 2.957032-1.363281 0-.25-.144532-.484376-.394532-.683594-.507812.410156-1.464843.683594-2.5625.683594-1.097656 0-2.050781-.273438-2.5625-.683594zm0 0" fill="url(#j)"/><path d="m10.914062 7.222656c-1.636718 0-2.957031.605469-2.957031 1.363282 0 .039062.003907.074218.011719.113281.125-.703125 1.390625-1.25 2.945312-1.25 1.554688 0 2.824219.546875 2.945313 1.25.007813-.039063.011719-.074219.011719-.113281 0-.757813-1.316406-1.363282-2.957032-1.363282zm-2.5625 2.726563c-.25.203125-.394531.433593-.394531.683593 0 .039063.003907.074219.011719.113282.035156-.207032.171875-.398438.382812-.570313.511719.410157 1.464844.683594 2.5625.683594 1.097657 0 2.054688-.273437 2.5625-.683594.214844.171875.347657.363281.382813.570313.007813-.039063.011719-.074219.011719-.113282 0-.25-.144532-.480468-.394532-.683593-.507812.410156-1.464843.683593-2.5625.683593-1.097656 0-2.050781-.273437-2.5625-.683593zm0 2.046875c-.25.199218-.394531.433594-.394531.683594 0 .039062.003907.074218.011719.113281.035156-.207031.171875-.398438.382812-.570313.511719.410156 1.464844.683594 2.5625.683594 1.097657 0 2.054688-.273438 2.5625-.683594.214844.171875.347657.363282.382813.570313.007813-.039063.011719-.074219.011719-.113281 0-.25-.144532-.484376-.394532-.683594-.507812.410156-1.464843.683594-2.5625.683594-1.097656 0-2.050781-.273438-2.5625-.683594zm0 0" fill="#fff" fill-opacity=".392157"/><path d="m7.980469 8.757812c-.015625.054688-.023438.109376-.023438.167969 0 .757813 1.320313 1.367188 2.957031 1.367188 1.640626 0 2.957032-.609375 2.957032-1.367188 0-.058593-.007813-.113281-.023438-.167969-.179687.671876-1.421875 1.191407-2.933594 1.191407-1.511718 0-2.75-.519531-2.933593-1.191407zm0 2.046876c-.015625.054687-.023438.109374-.023438.167968 0 .757813 1.320313 1.363282 2.957031 1.363282 1.640626 0 2.957032-.605469 2.957032-1.363282 0-.058594-.007813-.113281-.023438-.167968-.179687.671874-1.421875 1.191406-2.933594 1.191406-1.511718 0-2.75-.519532-2.933593-1.191406zm0 2.042968c-.015625.058594-.023438.113282-.023438.171875 0 .757813 1.320313 1.363281 2.957031 1.363281 1.640626 0 2.957032-.605468 2.957032-1.363281 0-.058593-.007813-.113281-.023438-.171875-.179687.675782-1.421875 1.195313-2.933594 1.195313-1.511718 0-2.75-.519531-2.933593-1.195313zm0 0" fill-opacity=".235294"/><path d="m253.975747-46.925141c-38.087272 0-68.811611 14.089563-68.811611 31.724243 0 17.543779 30.724339 31.724243 68.811611 31.724243 38.178172 0 68.81161-14.180464 68.81161-31.724243 0-17.63468-30.633438-31.724243-68.81161-31.724243zm-59.63067 63.448486c-5.817626 4.726822-9.180941 10.089946-9.180941 15.907572 0 17.543779 30.724339 31.724243 68.811611 31.724243 38.178172 0 68.81161-14.180464 68.81161-31.724243 0-5.817626-3.363315-11.18075-9.180941-15.907572-11.817054 9.544543-34.087654 15.907572-59.630669 15.907572-25.543016 0-47.722716-6.363029-59.63067-15.907572zm0 47.631815c-5.817626 4.635921-9.180941 10.089946-9.180941 15.907572 0 17.543779 30.724339 31.724243 68.811611 31.724243 38.178172 0 68.81161-14.180464 68.81161-31.724243 0-5.817626-3.363315-11.271651-9.180941-15.907572-11.817054 9.544543-34.087654 15.907572-59.630669 15.907572-25.543016 0-47.722716-6.363029-59.63067-15.907572zm0 0" fill="none" stroke="#212121" stroke-linecap="round" stroke-linejoin="round" stroke-width="3" transform="matrix(.0429729 0 0 .0429729 0 9.239163)"/></svg>

<?xml version="1.0" encoding="UTF-8"?>
<svg xmlns="http://www.w3.org/2000/svg" xmlns:xlink="http://www.w3.org/1999/xlink" width="22px" height="22px" viewBox="0 0 22 22" version="1.1">
<defs>
<linearGradient id="linear0" gradientUnits="userSpaceOnUse" x1="254" y1="233.5" x2="254" y2="254.666672" gradientTransform="matrix(0.0511582,0,0,0.0429729,-1.808356,9.239165)">
<stop offset="0" style="stop-color:rgb(0%,0%,0%);stop-opacity:0.27451;"/>
<stop offset="1" style="stop-color:rgb(0%,0%,0%);stop-opacity:0;"/>
</linearGradient>
<radialGradient id="radial0" gradientUnits="userSpaceOnUse" cx="450.908936" cy="189.579361" fx="450.908936" fy="189.579361" r="21.166656" gradientTransform="matrix(0.000000119742,-0.0537161,-0.0966889,-0.0000000698078,34.702833,43.721791)">
<stop offset="0" style="stop-color:rgb(0%,0%,0%);stop-opacity:0.313726;"/>
<stop offset="0.222222" style="stop-color:rgb(0%,0%,0%);stop-opacity:0.27451;"/>
<stop offset="1" style="stop-color:rgb(0%,0%,0%);stop-opacity:0;"/>
</radialGradient>
<radialGradient id="radial1" gradientUnits="userSpaceOnUse" cx="450.908936" cy="189.579361" fx="450.908936" fy="189.579361" r="21.166656" gradientTransform="matrix(-0.000000119742,0.0537161,0.0966889,0.0000000698078,-12.872623,-5.175142)">
<stop offset="0" style="stop-color:rgb(0%,0%,0%);stop-opacity:0.313726;"/>
<stop offset="0.222222" style="stop-color:rgb(0%,0%,0%);stop-opacity:0.27451;"/>
<stop offset="1" style="stop-color:rgb(0%,0%,0%);stop-opacity:0;"/>
</radialGradient>
<radialGradient id="radial2" gradientUnits="userSpaceOnUse" cx="450.908936" cy="189.579361" fx="450.908936" fy="189.579361" r="21.166656" gradientTransform="matrix(-0.000000119742,-0.0537161,0.0966889,-0.0000000698078,-12.872623,43.721791)">
<stop offset="0" style="stop-color:rgb(0%,0%,0%);stop-opacity:0.313726;"/>
<stop offset="0.222222" style="stop-color:rgb(0%,0%,0%);stop-opacity:0.27451;"/>
<stop offset="1" style="stop-color:rgb(0%,0%,0%);stop-opacity:0;"/>
</radialGradient>
<radialGradient id="radial3" gradientUnits="userSpaceOnUse" cx="450.908936" cy="189.579361" fx="450.908936" fy="189.579361" r="21.166656" gradientTransform="matrix(0.000000119742,0.0537161,-0.0966889,0.0000000698078,34.702832,-5.175142)">
<stop offset="0" style="stop-color:rgb(0%,0%,0%);stop-opacity:0.313726;"/>
<stop offset="0.222222" style="stop-color:rgb(0%,0%,0%);stop-opacity:0.27451;"/>
<stop offset="1" style="stop-color:rgb(0%,0%,0%);stop-opacity:0;"/>
</radialGradient>
<linearGradient id="linear1" gradientUnits="userSpaceOnUse" x1="254" y1="233.5" x2="254" y2="-168.666672" gradientTransform="matrix(0.0429729,0,0,0.0429729,0,9.239163)">
<stop offset="0" style="stop-color:rgb(87.843138%,87.843138%,87.843138%);stop-opacity:1;"/>
<stop offset="1" style="stop-color:rgb(93.333334%,93.333334%,93.333334%);stop-opacity:1;"/>
</linearGradient>
<linearGradient id="linear2" gradientUnits="userSpaceOnUse" x1="413.712219" y1="-474.701691" x2="413.712219" y2="-72.535034" gradientTransform="matrix(0.0429729,0,0,0.0429729,0,9.239163)">
<stop offset="0" style="stop-color:rgb(92.54902%,25.098041%,47.843137%);stop-opacity:1;"/>
<stop offset="1" style="stop-color:rgb(94.117647%,38.431373%,57.254905%);stop-opacity:1;"/>
</linearGradient>
<linearGradient id="linear3" gradientUnits="userSpaceOnUse" x1="940" y1="1215.118164" x2="940" y2="655.118103" gradientTransform="matrix(0.0113699,0,0,0.0113699,0.227398,-0.227398)">
<stop offset="0" style="stop-color:rgb(92.54902%,25.098041%,47.843137%);stop-opacity:1;"/>
<stop offset="1" style="stop-color:rgb(94.117647%,38.431373%,57.254905%);stop-opacity:1;"/>
</linearGradient>
</defs>
<g id="surface1">
<path style=" stroke:none;fill-rule:nonzero;fill:url(#linear0);" d="M 5.230469 19.273438 L 16.601562 19.273438 L 16.601562 20.183594 L 5.230469 20.183594 Z M 5.230469 19.273438 "/>
<path style=" stroke:none;fill-rule:nonzero;fill:url(#radial0);" d="M 16.601562 19.273438 L 18.417969 19.273438 L 18.417969 18.363281 L 16.601562 18.363281 Z M 16.601562 19.273438 "/>
<path style=" stroke:none;fill-rule:nonzero;fill:url(#radial1);" d="M 5.230469 19.273438 L 3.410156 19.273438 L 3.410156 20.183594 L 5.230469 20.183594 Z M 5.230469 19.273438 "/>
<path style=" stroke:none;fill-rule:nonzero;fill:url(#radial2);" d="M 5.230469 19.273438 L 3.410156 19.273438 L 3.410156 18.363281 L 5.230469 18.363281 Z M 5.230469 19.273438 "/>
<path style=" stroke:none;fill-rule:nonzero;fill:url(#radial3);" d="M 16.601562 19.273438 L 18.417969 19.273438 L 18.417969 20.183594 L 16.601562 20.183594 Z M 16.601562 19.273438 "/>
<path style=" stroke:none;fill-rule:nonzero;fill:url(#linear1);" d="M 13.683594 1.992188 L 4.546875 1.992188 C 4.042969 1.992188 3.636719 2.398438 3.636719 2.902344 L 3.636719 18.363281 C 3.636719 18.867188 4.042969 19.273438 4.546875 19.273438 L 17.28125 19.273438 C 17.785156 19.273438 18.191406 18.867188 18.191406 18.363281 L 18.191406 6.121094 Z M 13.683594 1.992188 "/>
<path style=" stroke:none;fill-rule:nonzero;fill:url(#linear2);" d="M 13.683594 1.992188 L 18.191406 6.121094 L 18.191406 2.902344 C 18.191406 2.398438 17.785156 1.992188 17.28125 1.992188 Z M 13.683594 1.992188 "/>
<path style=" stroke:none;fill-rule:nonzero;fill:rgb(0%,0%,0%);fill-opacity:0.235294;" d="M 3.636719 18.136719 L 3.636719 18.363281 C 3.636719 18.867188 4.042969 19.273438 4.546875 19.273438 L 17.28125 19.273438 C 17.785156 19.273438 18.191406 18.867188 18.191406 18.363281 L 18.191406 18.136719 C 18.191406 18.640625 17.785156 19.046875 17.28125 19.046875 L 4.546875 19.046875 C 4.042969 19.046875 3.636719 18.640625 3.636719 18.136719 Z M 3.636719 18.136719 "/>
<path style=" stroke:none;fill-rule:nonzero;fill:rgb(100%,100%,100%);fill-opacity:1;" d="M 4.546875 1.992188 C 4.042969 1.992188 3.636719 2.398438 3.636719 2.902344 L 3.636719 3.355469 C 3.636719 2.851562 4.042969 2.445312 4.546875 2.445312 L 13.683594 2.445312 L 18.191406 6.578125 L 18.191406 6.121094 L 13.683594 1.992188 Z M 4.546875 1.992188 "/>
<path style=" stroke:none;fill-rule:nonzero;fill:rgb(100%,100%,100%);fill-opacity:0.392157;" d="M 13.683594 1.992188 L 14.179688 2.445312 L 17.28125 2.445312 C 17.785156 2.445312 18.191406 2.851562 18.191406 3.355469 L 18.191406 2.902344 C 18.191406 2.398438 17.785156 1.992188 17.28125 1.992188 Z M 13.683594 1.992188 "/>
<path style=" stroke:none;fill-rule:nonzero;fill:rgb(0%,0%,0%);fill-opacity:0.235294;" d="M 13.683594 1.992188 L 18.191406 6.121094 L 18.191406 5.742188 L 14.097656 1.992188 Z M 13.683594 1.992188 "/>
<path style="fill:none;stroke-width:11.338583;stroke-linecap:round;stroke-linejoin:round;stroke:rgb(12.941177%,12.941177%,12.941177%);stroke-opacity:1;stroke-miterlimit:4;" d="M 1203.492866 175.215918 L 399.904566 175.215918 C 355.585246 175.215918 319.854941 210.946223 319.854941 255.265544 L 319.854941 1615.078494 C 319.854941 1659.397814 355.585246 1695.128119 399.904566 1695.128119 L 1519.912201 1695.128119 C 1564.231522 1695.128119 1599.961827 1659.397814 1599.961827 1615.078494 L 1599.961827 538.359498 Z M 1203.492866 175.215918 " transform="matrix(0.0113699,0,0,0.0113699,0,0)"/>
<path style="fill:none;stroke-width:3;stroke-linecap:round;stroke-linejoin:round;stroke:rgb(12.941177%,12.941177%,12.941177%);stroke-opacity:1;stroke-miterlimit:4;" d="M 318.424137 -168.640791 L 423.323211 -72.559057 L 423.323211 -147.460995 C 423.323211 -159.187148 413.869568 -168.640791 402.143415 -168.640791 Z M 318.424137 -168.640791 " transform="matrix(0.0429729,0,0,0.0429729,0,9.239163)"/>
<path style=" stroke:none;fill-rule:nonzero;fill:url(#linear3);" d="M 10.914062 7.222656 C 9.277344 7.222656 7.957031 7.828125 7.957031 8.585938 C 7.957031 9.339844 9.277344 9.949219 10.914062 9.949219 C 12.554688 9.949219 13.871094 9.339844 13.871094 8.585938 C 13.871094 7.828125 12.554688 7.222656 10.914062 7.222656 Z M 8.351562 9.949219 C 8.101562 10.152344 7.957031 10.382812 7.957031 10.632812 C 7.957031 11.386719 9.277344 11.996094 10.914062 11.996094 C 12.554688 11.996094 13.871094 11.386719 13.871094 10.632812 C 13.871094 10.382812 13.726562 10.152344 13.476562 9.949219 C 12.96875 10.359375 12.011719 10.632812 10.914062 10.632812 C 9.816406 10.632812 8.863281 10.359375 8.351562 9.949219 Z M 8.351562 11.996094 C 8.101562 12.195312 7.957031 12.429688 7.957031 12.679688 C 7.957031 13.433594 9.277344 14.042969 10.914062 14.042969 C 12.554688 14.042969 13.871094 13.433594 13.871094 12.679688 C 13.871094 12.429688 13.726562 12.195312 13.476562 11.996094 C 12.96875 12.40625 12.011719 12.679688 10.914062 12.679688 C 9.816406 12.679688 8.863281 12.40625 8.351562 11.996094 Z M 8.351562 11.996094 "/>
<path style=" stroke:none;fill-rule:nonzero;fill:rgb(100%,100%,100%);fill-opacity:0.392157;" d="M 10.914062 7.222656 C 9.277344 7.222656 7.957031 7.828125 7.957031 8.585938 C 7.957031 8.625 7.960938 8.660156 7.96875 8.699219 C 8.09375 7.996094 9.359375 7.449219 10.914062 7.449219 C 12.46875 7.449219 13.738281 7.996094 13.859375 8.699219 C 13.867188 8.660156 13.871094 8.625 13.871094 8.585938 C 13.871094 7.828125 12.554688 7.222656 10.914062 7.222656 Z M 8.351562 9.949219 C 8.101562 10.152344 7.957031 10.382812 7.957031 10.632812 C 7.957031 10.671875 7.960938 10.707031 7.96875 10.746094 C 8.003906 10.539062 8.140625 10.347656 8.351562 10.175781 C 8.863281 10.585938 9.816406 10.859375 10.914062 10.859375 C 12.011719 10.859375 12.96875 10.585938 13.476562 10.175781 C 13.691406 10.347656 13.824219 10.539062 13.859375 10.746094 C 13.867188 10.707031 13.871094 10.671875 13.871094 10.632812 C 13.871094 10.382812 13.726562 10.152344 13.476562 9.949219 C 12.96875 10.359375 12.011719 10.632812 10.914062 10.632812 C 9.816406 10.632812 8.863281 10.359375 8.351562 9.949219 Z M 8.351562 11.996094 C 8.101562 12.195312 7.957031 12.429688 7.957031 12.679688 C 7.957031 12.71875 7.960938 12.753906 7.96875 12.792969 C 8.003906 12.585938 8.140625 12.394531 8.351562 12.222656 C 8.863281 12.632812 9.816406 12.90625 10.914062 12.90625 C 12.011719 12.90625 12.96875 12.632812 13.476562 12.222656 C 13.691406 12.394531 13.824219 12.585938 13.859375 12.792969 C 13.867188 12.753906 13.871094 12.71875 13.871094 12.679688 C 13.871094 12.429688 13.726562 12.195312 13.476562 11.996094 C 12.96875 12.40625 12.011719 12.679688 10.914062 12.679688 C 9.816406 12.679688 8.863281 12.40625 8.351562 11.996094 Z M 8.351562 11.996094 "/>
<path style=" stroke:none;fill-rule:nonzero;fill:rgb(0%,0%,0%);fill-opacity:0.235294;" d="M 7.980469 8.757812 C 7.964844 8.8125 7.957031 8.867188 7.957031 8.925781 C 7.957031 9.683594 9.277344 10.292969 10.914062 10.292969 C 12.554688 10.292969 13.871094 9.683594 13.871094 8.925781 C 13.871094 8.867188 13.863281 8.8125 13.847656 8.757812 C 13.667969 9.429688 12.425781 9.949219 10.914062 9.949219 C 9.402344 9.949219 8.164062 9.429688 7.980469 8.757812 Z M 7.980469 10.804688 C 7.964844 10.859375 7.957031 10.914062 7.957031 10.972656 C 7.957031 11.730469 9.277344 12.335938 10.914062 12.335938 C 12.554688 12.335938 13.871094 11.730469 13.871094 10.972656 C 13.871094 10.914062 13.863281 10.859375 13.847656 10.804688 C 13.667969 11.476562 12.425781 11.996094 10.914062 11.996094 C 9.402344 11.996094 8.164062 11.476562 7.980469 10.804688 Z M 7.980469 12.847656 C 7.964844 12.90625 7.957031 12.960938 7.957031 13.019531 C 7.957031 13.777344 9.277344 14.382812 10.914062 14.382812 C 12.554688 14.382812 13.871094 13.777344 13.871094 13.019531 C 13.871094 12.960938 13.863281 12.90625 13.847656 12.847656 C 13.667969 13.523438 12.425781 14.042969 10.914062 14.042969 C 9.402344 14.042969 8.164062 13.523438 7.980469 12.847656 Z M 7.980469 12.847656 "/>
<path style="fill:none;stroke-width:3;stroke-linecap:round;stroke-linejoin:round;stroke:rgb(12.941177%,12.941177%,12.941177%);stroke-opacity:1;stroke-miterlimit:4;" d="M 253.975747 -46.925141 C 215.888475 -46.925141 185.164136 -32.835578 185.164136 -15.200898 C 185.164136 2.342881 215.888475 16.523345 253.975747 16.523345 C 292.153919 16.523345 322.787357 2.342881 322.787357 -15.200898 C 322.787357 -32.835578 292.153919 -46.925141 253.975747 -46.925141 Z M 194.345077 16.523345 C 188.527451 21.250167 185.164136 26.613291 185.164136 32.430917 C 185.164136 49.974696 215.888475 64.15516 253.975747 64.15516 C 292.153919 64.15516 322.787357 49.974696 322.787357 32.430917 C 322.787357 26.613291 319.424042 21.250167 313.606416 16.523345 C 301.789362 26.067888 279.518762 32.430917 253.975747 32.430917 C 228.432731 32.430917 206.253031 26.067888 194.345077 16.523345 Z M 194.345077 64.15516 C 188.527451 68.791081 185.164136 74.245106 185.164136 80.062732 C 185.164136 97.606511 215.888475 111.786975 253.975747 111.786975 C 292.153919 111.786975 322.787357 97.606511 322.787357 80.062732 C 322.787357 74.245106 319.424042 68.791081 313.606416 64.15516 C 301.789362 73.699703 279.518762 80.062732 253.975747 80.062732 C 228.432731 80.062732 206.253031 73.699703 194.345077 64.15516 Z M 194.345077 64.15516 " transform="matrix(0.0429729,0,0,0.0429729,0,9.239163)"/>
</g>
</svg>
